; generated by PrusaSlicer 2.6.1-rc2+win64 on 2023-09-12 at 09:41:18 UTC

; 

; external perimeters extrusion width = 0.45mm
; perimeters extrusion width = 0.45mm
; infill extrusion width = 0.45mm
; solid infill extrusion width = 0.45mm
; top infill extrusion width = 0.45mm
; first layer extrusion width = 0.50mm

;TYPE:Custom
M104 S200 ; set extruder temp
M140 S60 ; set bed temp
M190 S60 ; wait for bed temp
M109 S200 ; wait for extruder temp
G28 ; home all axes
G1 Z5 F3000 ; lift nozzle
G1 X5 Y10 F1500 ; move to prime
G1 Z0.2 F3000 ; get ready to prime
G92 E0 ; reset extrusion distance
G1 Y200 E15 F600 ; prime nozzle
G1 Y20 F5000 ; quick wipe
G92 E0
G21 ; set units to millimeters
G90 ; use absolute coordinates
M83 ; use relative distances for extrusion
; Filament gcode
M107
;LAYER_CHANGE
;Z:0.3
;HEIGHT:0.3
G92 E0
G1 Z.3 F480
G92 E0
G1 E-10 F2100
G1 Z.8 F480
G1 X181.409 Y131.239 F7200
G1 Z.3 F480
G1 E10 F1800
;TYPE:Perimeter
;WIDTH:0.5
G1 F900
G1 X188.568 Y138.399 E.55012
G1 X188.891 Y138.79 E.02756
G1 X189.158 Y139.256 E.02918
G1 X189.316 Y139.766 E.02901
G1 X189.382 Y140.271 E.02767
G1 X189.586 Y146.069 E.31522
G1 X189.653 Y146.683 E.03356
G1 X189.822 Y147.287 E.03408
G1 X190.113 Y147.898 E.03677
G1 X190.449 Y148.383 E.03206
G1 X190.883 Y148.833 E.03397
G1 X191.388 Y149.207 E.03414
G1 X191.91 Y149.476 E.03191
G1 X192.559 Y149.688 E.0371
G1 X193.184 Y149.776 E.03429
G1 X193.803 Y149.761 E.03364
G1 X194.384 Y149.653 E.03211
G1 X195.024 Y149.421 E.03699
G1 X195.571 Y149.107 E.03427
G1 X195.985 Y148.781 E.02863
G1 X196.333 Y148.412 E.02756
G1 X196.536 Y148.132 E.01879
G1 X196.804 Y147.701 E.02758
G1 X197.045 Y147.112 E.03458
G1 X197.171 Y146.6 E.02865
G1 X197.224 Y146.011 E.03213
G1 X197.412 Y140.627 E.29271
G1 X197.957 Y141.081 E.03854
G1 X198.406 Y141.543 E.035
G1 X198.809 Y142.047 E.03506
G1 X199.159 Y142.583 E.03478
G1 X199.436 Y143.102 E.03196
G1 X199.68 Y143.685 E.03434
G1 X199.868 Y144.292 E.03453
G1 X199.997 Y144.911 E.03435
G1 X200.067 Y145.542 E.03449
G1 X200.077 Y146.174 E.03434
G1 X200.027 Y146.808 E.03455
G1 X199.917 Y147.43 E.03432
G1 X199.748 Y148.042 E.0345
G1 X199.524 Y148.633 E.03434
G1 X199.242 Y149.202 E.0345
G1 X198.91 Y149.74 E.03435
G1 X198.526 Y150.246 E.03451
G1 X198.098 Y150.712 E.03438
G1 X197.629 Y151.133 E.03424
G1 X197.091 Y151.531 E.03636
G1 X179.525 Y163.287 E1.14843
G1 X180.338 Y162.251 E.07155
G1 X181.14 Y161.111 E.07573
G1 X181.943 Y159.83 E.08214
G1 X182.65 Y158.554 E.07926
G1 X183.303 Y157.201 E.08163
G1 X183.848 Y155.912 E.07604
G1 X184.341 Y154.546 E.0789
G1 X184.745 Y153.21 E.07583
G1 X185.106 Y151.742 E.08214
G1 X185.255 Y150.957 E.04341
G1 X185.422 Y149.967 E.05455
G1 X185.569 Y148.874 E.05992
G1 X185.685 Y147.425 E.07898
G1 X185.724 Y145.974 E.07887
G1 X185.689 Y144.577 E.07593
G1 X185.577 Y143.13 E.07885
G1 X185.378 Y141.631 E.08216
G1 X185.11 Y140.202 E.079
G1 X184.781 Y138.847 E.07576
G1 X184.347 Y137.398 E.08218
G1 X183.855 Y136.031 E.07894
G1 X183.315 Y134.745 E.07578
G1 X182.656 Y133.384 E.08216
G1 X181.983 Y132.164 E.0757
G1 X181.441 Y131.29 E.05588
G1 E-10 F2100
G1 Z.8 F480
G1 X137.277 Y128.643 F7200
G1 Z.3 F480
G1 E10 F1800
G1 F900
G1 X136.423 Y129.736 E.07536
G1 X135.623 Y130.88 E.07585
G1 X134.824 Y132.164 E.08217
G1 X134.124 Y133.435 E.07884
G1 X133.516 Y134.693 E.07591
G1 X132.93 Y136.086 E.08211
G1 X132.442 Y137.453 E.07886
G1 X132.041 Y138.791 E.07589
G1 X131.685 Y140.258 E.08202
G1 X131.419 Y141.688 E.07903
G1 X131.301 Y142.58 E.04889
G1 X131.23 Y143.13 E.03013
G1 X131.118 Y144.577 E.07885
G1 X131.083 Y146.031 E.07902
G1 X131.121 Y147.425 E.07577
G1 X131.238 Y148.874 E.07898
G1 X131.441 Y150.373 E.08219
G1 X131.713 Y151.798 E.07882
G1 X132.046 Y153.155 E.07592
G1 X132.484 Y154.601 E.08209
G1 X132.979 Y155.966 E.07889
G1 X133.524 Y157.253 E.07594
G1 X134.185 Y158.609 E.08196
G1 X134.863 Y159.83 E.07588
G1 X135.4 Y160.69 E.05509
G1 X128.238 Y153.528 E.55032
G1 X127.915 Y153.137 E.02756
G1 X127.649 Y152.671 E.02915
G1 X127.49 Y152.16 E.02908
G1 X127.424 Y151.655 E.02767
G1 X127.22 Y145.858 E.31516
G1 X127.154 Y145.244 E.03355
G1 X126.985 Y144.639 E.03413
G1 X126.715 Y144.061 E.03466
G1 X126.358 Y143.544 E.03414
G1 X125.915 Y143.088 E.03454
G1 X125.38 Y142.697 E.036
G1 X124.859 Y142.433 E.03173
G1 X124.298 Y142.252 E.03203
G1 X123.613 Y142.151 E.03762
G1 X122.959 Y142.171 E.03555
G1 X122.382 Y142.283 E.03194
G1 X121.83 Y142.486 E.03196
G1 X121.236 Y142.819 E.037
G1 X120.747 Y143.22 E.03436
G1 X120.338 Y143.685 E.03365
G1 X120.026 Y144.185 E.03202
G1 X119.761 Y144.814 E.03708
G1 X119.635 Y145.327 E.0287
G1 X119.584 Y145.883 E.03034
G1 X119.395 Y151.3 E.2945
G1 X118.861 Y150.857 E.0377
G1 X118.418 Y150.405 E.03439
G1 X118.019 Y149.912 E.03446
G1 X117.669 Y149.385 E.03437
G1 X117.37 Y148.824 E.03454
G1 X117.127 Y148.241 E.03432
G1 X116.939 Y147.634 E.03453
G1 X116.81 Y147.016 E.0343
G1 X116.739 Y146.384 E.03455
G1 X116.73 Y145.753 E.03429
G1 X116.78 Y145.119 E.03455
G1 X116.889 Y144.497 E.03431
G1 X117.058 Y143.884 E.03455
G1 X117.283 Y143.294 E.03431
G1 X117.564 Y142.724 E.03453
G1 X117.897 Y142.186 E.03438
G1 X118.281 Y141.681 E.03447
G1 X118.709 Y141.215 E.03438
G1 X119.178 Y140.794 E.03424
G1 X119.715 Y140.395 E.03635
G1 X137.227 Y128.676 E1.14487
G1 E-10 F2100
G1 Z.8 F480
G1 X145.374 Y122.444 F7200
G1 Z.3 F480
G1 E10 F1800
;WIDTH:0.450868
G1 F900
G1 X144.987 Y122.729 E.02317
;WIDTH:0.402404
G1 X144.127 Y123.245 E.04228
;WIDTH:0.392293
G1 X144.117 Y123.251 E.00048
;WIDTH:0.400563
G1 X143.685 Y123.534 E.02165
G1 X142.558 Y124.315 E.05749
;WIDTH:0.400382
G1 X141.474 Y125.151 E.05737
;WIDTH:0.400185
G1 X140.702 Y125.798 E.04219
;WIDTH:0.39978
G1 X139.655 Y126.768 E.05971
;WIDTH:0.408683
G1 X139.307 Y127.114 E.02107
;WIDTH:0.454341
G1 X138.953 Y127.447 E.02364
;WIDTH:0.5
G1 X138.6 Y127.78 E.02637
G1 X137.66 Y128.86 E.07779
G1 X136.78 Y129.986 E.07765
G1 X135.98 Y131.13 E.07585
G1 X135.205 Y132.374 E.07963
G1 X134.516 Y133.625 E.0776
G1 X133.908 Y134.882 E.07587
G1 X133.341 Y136.233 E.07961
G1 X132.859 Y137.578 E.07763
G1 X132.449 Y138.95 E.0778
G1 X132.12 Y140.304 E.07571
G1 X131.99 Y140.997 E.03831
G1 X131.851 Y141.745 E.04134
G1 X131.664 Y143.164 E.07776
G1 X131.553 Y144.588 E.0776
G1 X131.535 Y145.314 E.03946
G1 X131.518 Y146.019 E.03832
G1 X131.559 Y147.448 E.07767
G1 X131.676 Y148.873 E.07768
G1 X131.863 Y150.257 E.07588
G1 X132.136 Y151.694 E.07947
G1 X132.478 Y153.084 E.07777
G1 X132.882 Y154.42 E.07583
G1 X133.381 Y155.796 E.07953
G1 X133.94 Y157.114 E.07779
G1 X134.55 Y158.367 E.07572
G1 X135.262 Y159.648 E.07963
;WIDTH:0.546618
G1 X135.489 Y160.055 E.02803
;WIDTH:0.593236
G1 X135.716 Y160.462 E.03074
;WIDTH:0.639855
G1 X135.944 Y160.868 E.03342
;WIDTH:0.662434
G1 X135.956 Y160.907 E.00304
G1 X136.24 Y161.276 E.03473
;WIDTH:0.622352
G1 X136.524 Y161.644 E.03235
;WIDTH:0.582271
G1 X136.807 Y162.012 E.02999
;WIDTH:0.54219
G1 X136.83 Y162.04 E.00216
;WIDTH:0.538659
G1 X137.278 Y162.576 E.04132
;WIDTH:0.497053
G1 X137.726 Y163.112 E.0377
;WIDTH:0.455448
G1 X137.749 Y163.137 E.00166
;WIDTH:0.453421
G1 X138.685 Y164.171 E.06768
;WIDTH:0.407463
G1 X138.707 Y164.194 E.00136
;WIDTH:0.40665
G1 X139.425 Y164.926 E.04377
;WIDTH:0.400252
G1 X139.709 Y165.211 E.01685
;WIDTH:0.392977
G1 X140.76 Y166.179 E.05856
;WIDTH:0.40062
G1 X141.858 Y167.087 E.05975
;WIDTH:0.400984
G1 X143.006 Y167.937 E.05997
G1 X144.196 Y168.725 E.05992
G1 X145.426 Y169.448 E.0599
G1 X146.695 Y170.105 E.05999
;WIDTH:0.40081
G1 X147.975 Y170.686 E.05898
;WIDTH:0.400661
G1 X148.45 Y170.876 E.02146
G1 X149.725 Y171.349 E.05704
;WIDTH:0.400309
G1 X151.022 Y171.757 E.05697
;WIDTH:0.399932
G1 X152.025 Y172.026 E.04346
;WIDTH:0.399474
G1 X153.421 Y172.329 E.0597
;WIDTH:0.398885
G1 X154.829 Y172.557 E.05951
;WIDTH:0.398253
G1 X156.248 Y172.709 E.05943
;WIDTH:0.397523
G1 X157.675 Y172.787 E.05938
;WIDTH:0.396671
G1 X159.131 Y172.787 E.06034
;WIDTH:0.397504
G1 X160.556 Y172.71 E.05929
;WIDTH:0.398235
G1 X161.973 Y172.558 E.05934
;WIDTH:0.398869
G1 X163.38 Y172.33 E.05946
;WIDTH:0.39946
G1 X164.782 Y172.026 E.05996
;WIDTH:0.399922
G1 X166.157 Y171.65 E.05966
;WIDTH:0.392918
G1 X167.513 Y171.201 E.05853
;WIDTH:0.400655
G1 X168.843 Y170.681 E.05989
;WIDTH:0.400805
G1 X170.141 Y170.091 E.05983
;WIDTH:0.401039
G1 X171.408 Y169.432 E.05997
G1 X172.637 Y168.708 E.05989
;WIDTH:0.400902
G1 X173.826 Y167.919 E.05989
G1 X174.958 Y167.079 E.05917
;WIDTH:0.400621
G1 X175.354 Y166.757 E.0214
G1 X176.384 Y165.873 E.05692
;WIDTH:0.400264
G1 X177.121 Y165.189 E.04212
;WIDTH:0.409009
G1 X177.499 Y164.812 E.02295
;WIDTH:0.454504
G1 X177.828 Y164.506 E.02186
;WIDTH:0.5
G1 X178.157 Y164.201 E.02438
G1 X179.098 Y163.126 E.07762
G1 X179.961 Y162.028 E.07588
G1 X180.784 Y160.86 E.07763
G1 X181.545 Y159.648 E.07776
G1 X182.24 Y158.398 E.07771
G1 X182.911 Y157.012 E.08367
G1 X183.439 Y155.764 E.07363
G1 X183.913 Y154.453 E.07574
G1 X184.338 Y153.051 E.0796
G1 X184.671 Y151.694 E.07592
G1 X184.827 Y150.876 E.04525
G1 X184.991 Y149.908 E.05334
G1 X185.134 Y148.839 E.0586
G1 X185.25 Y147.413 E.07773
G1 X185.289 Y145.985 E.07762
G1 X185.253 Y144.588 E.07593
G1 X185.143 Y143.164 E.0776
G1 X184.95 Y141.711 E.07964
G1 X184.686 Y140.304 E.07778
G1 X184.358 Y138.95 E.07569
G1 X183.937 Y137.545 E.07969
G1 X183.453 Y136.2 E.07767
G1 X182.913 Y134.914 E.07578
G1 X182.29 Y133.625 E.07779
G1 X181.602 Y132.374 E.07757
G1 X180.826 Y131.13 E.07966
;WIDTH:0.547424
G1 X180.023 Y129.944 E.08629
;WIDTH:0.544065
G1 X179.577 Y129.409 E.04167
;WIDTH:0.501595
G1 X179.131 Y128.873 E.03802
;WIDTH:0.459126
G1 X179.109 Y128.847 E.00168
;WIDTH:0.45703
G1 X178.173 Y127.81 E.06841
;WIDTH:0.409077
G1 X178.151 Y127.786 E.0014
;WIDTH:0.408205
G1 X177.382 Y126.999 E.04719
;WIDTH:0.399679
G1 X177.152 Y126.768 E.01363
;WIDTH:0.399781
G1 X176.104 Y125.798 E.05974
;WIDTH:0.400186
G1 X175.006 Y124.885 E.05981
;WIDTH:0.392743
G1 X173.865 Y124.034 E.0583
;WIDTH:0.400562
G1 X172.68 Y123.245 E.05969
;WIDTH:0.402404
G1 X171.819 Y122.729 E.04232
;WIDTH:0.450875
G1 X171.425 Y122.428 E.0239
G1 X171.402 Y122.177 E.01215
;WIDTH:0.423723
G1 X171.379 Y121.926 E.0113
;WIDTH:0.396572
G1 X171.379 Y115.685 E.25858
G1 X171.712 Y115.685 E.0138
G1 X171.712 Y121.926 E.25858
;WIDTH:0.444026
G1 X171.761 Y122.219 E.01407
G1 X171.995 Y122.44 E.01524
;WIDTH:0.402404
G1 X172.85 Y122.965 E.0423
;WIDTH:0.39242
G1 X172.884 Y122.986 E.00164
;WIDTH:0.400562
G1 X173.311 Y123.256 E.02118
G1 X174.452 Y124.047 E.05821
;WIDTH:0.400383
G1 X175.547 Y124.892 E.05796
;WIDTH:0.400186
G1 X176.316 Y125.547 E.04231
;WIDTH:0.399781
G1 X176.601 Y125.796 E.01583
G1 X177.377 Y126.528 E.04463
;WIDTH:0.399679
G1 X177.619 Y126.763 E.01411
;WIDTH:0.408205
G1 X178.396 Y127.545 E.04727
;WIDTH:0.409077
G1 X178.425 Y127.575 E.00179
;WIDTH:0.45703
G1 X179.395 Y128.58 E.0684
;WIDTH:0.459126
G1 X179.426 Y128.611 E.00216
;WIDTH:0.501595
G1 X179.904 Y129.119 E.03804
;WIDTH:0.544065
G1 X180.381 Y129.627 E.04169
;WIDTH:0.547424
G1 X181.419 Y130.633 E.08709
;WIDTH:0.5
G1 X188.787 Y138.001 E.56614
G1 X188.938 Y138.159 E.01187
G1 X189.291 Y138.603 E.03082
G1 X189.558 Y139.082 E.0298
G1 X189.741 Y139.67 E.03346
G1 X189.817 Y140.242 E.03135
G1 X190.02 Y146.032 E.31478
G1 X190.075 Y146.576 E.02971
G1 X190.22 Y147.112 E.03017
G1 X190.477 Y147.659 E.03284
G1 X190.769 Y148.088 E.0282
G1 X191.151 Y148.489 E.03009
G1 X191.596 Y148.825 E.0303
G1 X192.055 Y149.065 E.02814
G1 X192.63 Y149.258 E.03295
G1 X193.183 Y149.34 E.03037
G1 X193.733 Y149.331 E.02989
G1 X194.246 Y149.239 E.02832
G1 X194.816 Y149.038 E.03284
G1 X195.303 Y148.764 E.03036
G1 X195.737 Y148.414 E.03029
G1 X196.076 Y148.036 E.02759
G1 X196.405 Y147.526 E.03298
G1 X196.619 Y147.02 E.02985
G1 X196.742 Y146.524 E.02777
G1 X196.788 Y145.996 E.0288
G1 X196.974 Y140.673 E.28939
G1 X197.007 Y140.007 E.03623
G1 X197.087 Y139.921 E.00638
G1 X197.232 Y139.972 E.00835
G1 X197.746 Y140.331 E.03406
G1 X198.268 Y140.776 E.03727
G1 X198.744 Y141.269 E.03723
G1 X199.172 Y141.806 E.03731
G1 X199.543 Y142.377 E.037
G1 X199.831 Y142.915 E.03316
G1 X200.09 Y143.537 E.03661
G1 X200.29 Y144.183 E.03674
G1 X200.428 Y144.842 E.03658
G1 X200.502 Y145.515 E.03679
G1 X200.513 Y146.188 E.03657
G1 X200.459 Y146.863 E.03679
G1 X200.343 Y147.526 E.03657
G1 X200.163 Y148.178 E.03675
G1 X199.923 Y148.807 E.03658
G1 X199.624 Y149.414 E.03676
G1 X199.269 Y149.987 E.03662
G1 X198.861 Y150.525 E.03669
G1 X198.404 Y151.022 E.03668
G1 X197.905 Y151.471 E.03647
G1 X197.342 Y151.888 E.03807
G1 X178.409 Y164.558 E1.23777
G1 X178.064 Y164.817 E.02344
;WIDTH:0.454504
G1 X177.719 Y165.075 E.02096
;WIDTH:0.409009
G1 X177.322 Y165.451 E.0235
;WIDTH:0.392979
G1 X176.258 Y166.429 E.05923
;WIDTH:0.400621
G1 X175.564 Y167.019 E.0382
G1 X175.146 Y167.348 E.02231
;WIDTH:0.400981
G1 X174.478 Y167.86 E.03533
G1 X173.985 Y168.209 E.02536
G1 X173.348 Y168.646 E.03243
G1 X172.78 Y169.005 E.02821
G1 X172.179 Y169.374 E.02961
G1 X171.536 Y169.737 E.031
G1 X170.977 Y170.041 E.02671
G1 X170.252 Y170.402 E.034
;WIDTH:0.400805
G1 X169.744 Y170.646 E.02365
G1 X168.961 Y170.987 E.03584
;WIDTH:0.400655
G1 X168.477 Y171.19 E.02201
G1 X167.186 Y171.668 E.05774
;WIDTH:0.400303
G1 X165.876 Y172.079 E.05752
;WIDTH:0.399922
G1 X164.867 Y172.344 E.04366
;WIDTH:0.39946
G1 X164.545 Y172.424 E.01387
G1 X163.454 Y172.651 E.04657
;WIDTH:0.398869
G1 X163.196 Y172.702 E.01097
G1 X162.029 Y172.883 E.04927
;WIDTH:0.398235
G1 X160.593 Y173.038 E.06014
;WIDTH:0.397504
G1 X159.149 Y173.118 E.06009
;WIDTH:0.396691
G1 X157.659 Y173.118 E.06176
;WIDTH:0.397523
G1 X156.218 Y173.039 E.05997
;WIDTH:0.398253
G1 X154.783 Y172.884 E.0601
;WIDTH:0.398885
G1 X153.617 Y172.703 E.04923
G1 X153.361 Y172.653 E.01088
;WIDTH:0.399474
G1 X152.267 Y172.425 E.04671
G1 X151.949 Y172.346 E.01369
;WIDTH:0.399932
G1 X150.936 Y172.081 E.04382
G1 X150.549 Y171.963 E.01693
;WIDTH:0.392908
G1 X149.177 Y171.508 E.05923
;WIDTH:0.400661
G1 X148.323 Y171.187 E.03827
G1 X147.831 Y170.981 E.02237
;WIDTH:0.40081
G1 X147.06 Y170.645 E.03529
G1 X146.518 Y170.384 E.02524
;WIDTH:0.40104
G1 X145.823 Y170.038 E.0326
G1 X145.236 Y169.717 E.02809
G1 X144.621 Y169.37 E.02965
G1 X143.992 Y168.984 E.03099
;WIDTH:0.400902
G1 X143.453 Y168.642 E.02679
G1 X142.789 Y168.185 E.03383
G1 X142.325 Y167.858 E.02383
G1 X141.648 Y167.339 E.0358
;WIDTH:0.40062
G1 X141.236 Y167.014 E.02201
G1 X140.193 Y166.119 E.05764
;WIDTH:0.400262
G1 X139.188 Y165.164 E.05808
;WIDTH:0.40665
G1 X138.463 Y164.435 E.04389
;WIDTH:0.407463
G1 X138.434 Y164.405 E.00179
;WIDTH:0.453421
G1 X137.465 Y163.403 E.06764
;WIDTH:0.455448
G1 X137.434 Y163.371 E.00217
;WIDTH:0.497053
G1 X136.955 Y162.863 E.03768
;WIDTH:0.538659
G1 X136.476 Y162.354 E.04135
;WIDTH:0.54219
G1 X136.443 Y162.319 E.00287
;WIDTH:0.582271
G1 X136.129 Y161.976 E.03004
;WIDTH:0.622352
G1 X135.814 Y161.633 E.03241
;WIDTH:0.662434
G1 X135.5 Y161.291 E.03463
G1 X135.453 Y161.26 E.0042
;WIDTH:0.639855
G1 X135.107 Y160.947 E.03349
;WIDTH:0.593236
G1 X134.762 Y160.634 E.03073
;WIDTH:0.546618
G1 X134.416 Y160.322 E.02802
;WIDTH:0.5
G1 X127.854 Y153.75 E.5046
G1 X127.515 Y153.323 E.02962
G1 X127.249 Y152.845 E.02972
G1 X127.065 Y152.256 E.03353
G1 X126.989 Y151.684 E.03135
G1 X126.786 Y145.894 E.31478
G1 X126.731 Y145.351 E.02965
G1 X126.586 Y144.814 E.03022
G1 X126.351 Y144.3 E.03071
G1 X126.037 Y143.839 E.03031
G1 X125.651 Y143.434 E.0304
G1 X125.175 Y143.081 E.0322
G1 X124.716 Y142.844 E.02807
G1 X124.222 Y142.681 E.02826
G1 X123.617 Y142.586 E.03327
G1 X123.032 Y142.601 E.0318
G1 X122.522 Y142.696 E.02819
G1 X122.034 Y142.871 E.02817
G1 X121.504 Y143.162 E.03285
G1 X121.068 Y143.514 E.03045
G1 X120.702 Y143.925 E.0299
G1 X120.423 Y144.363 E.02822
G1 X120.207 Y144.848 E.02885
G1 X120.074 Y145.356 E.02853
G1 X120.02 Y145.898 E.02959
G1 X119.806 Y151.881 E.32528
G1 X119.745 Y151.995 E.00702
G1 X119.606 Y151.976 E.00762
G1 X119.078 Y151.61 E.03491
G1 X118.564 Y151.177 E.03652
G1 X118.092 Y150.695 E.03665
G1 X117.667 Y150.17 E.0367
G1 X117.295 Y149.608 E.03662
G1 X116.976 Y149.011 E.03678
G1 X116.717 Y148.39 E.03656
G1 X116.516 Y147.743 E.03681
G1 X116.379 Y147.085 E.03652
G1 X116.304 Y146.412 E.03679
G1 X116.294 Y145.739 E.03657
G1 X116.347 Y145.064 E.03679
