; generated by PrusaSlicer 2.7.0+win64 on 2023-11-24 at 07:13:27 UTC

; 

; external perimeters extrusion width = 0.45mm
; perimeters extrusion width = 0.45mm
; infill extrusion width = 0.45mm
; solid infill extrusion width = 0.45mm
; top infill extrusion width = 0.45mm
; support material extrusion width = 0.35mm
; first layer extrusion width = 0.50mm

;TYPE:Custom
M104 S200 ; set extruder temp
M140 S60 ; set bed temp
M190 S60 ; wait for bed temp
M109 S200 ; wait for extruder temp
G28 ; home all axes
G1 Z5 F3000 ; lift nozzle
;prime nozzle on the side of hotbed
G1 X5 Y10 F1500 ; move to prime
G1 Z0.2 F3000 ; get ready to prime
G92 E0 ; reset extrusion distance
G1 Y200 E15 F600 ; prime nozzle
G1 Y20 F5000 ; quick wipe
G92 E0
G21 ; set units to millimeters
G90 ; use absolute coordinates
M82 ; use absolute distances for extrusion
G92 E0
; Filament gcode
M107
;LAYER_CHANGE
;Z:0.3
;HEIGHT:0.3
G1 Z.3 F480
G1 E-10 F2400
G92 E0
G1 X170.305 Y143.737 F7200
G1 Z.3 F480
G1 E10 F1800
;TYPE:Skirt/Brim
;WIDTH:0.5
G1 F900
G1 X171.104 Y142.99 E10.05943
G1 X171.524 Y142.74 E10.08599
G1 X172.009 Y142.541 E10.11447
G1 X172.52 Y142.421 E10.14299
G1 X173.81 Y142.347 E10.21319
G1 X179.217 Y142.332 E10.50697
G1 X181.133 Y142.431 E10.61121
G1 X181.72 Y142.585 E10.64418
G1 X182.27 Y142.847 E10.67728
G1 X182.767 Y143.21 E10.71072
G1 X183.51 Y144.002 E10.76972
G1 X183.932 Y144.821 E10.81978
G1 X184.079 Y145.41 E10.85276
G1 X184.162 Y146.834 E10.93026
G1 X184.171 Y158.458 E11.56183
G1 X184.113 Y159.476 E11.61723
G1 X184.171 Y160.857 E11.69233
G1 X184.171 Y171.417 E12.26608
G1 X184.058 Y173.532 E12.38116
G1 X183.752 Y174.403 E12.43132
G1 X183.295 Y175.068 E12.47516
G1 X182.496 Y175.816 E12.53463
G1 X182.078 Y176.064 E12.56104
G1 X181.223 Y176.362 E12.61024
G1 X179.216 Y176.473 E12.71945
G1 X174.387 Y176.473 E12.98182
G1 X172.338 Y176.354 E13.09334
G1 X171.879 Y176.219 E13.11934
G1 X171.093 Y175.807 E13.16756
G1 X170.31 Y175.073 E13.22587
G1 X169.875 Y174.453 E13.26702
G1 X169.634 Y173.88 E13.30079
G1 X169.504 Y173.274 E13.33446
G1 X169.429 Y171.42 E13.43528
G1 X169.429 Y160.857 E14.0092
G1 X169.487 Y159.476 E14.0843
G1 X169.429 Y158.46 E14.13959
G1 X169.429 Y147.388 E14.74116
G1 X169.542 Y145.273 E14.85624
G1 X169.848 Y144.402 E14.9064
G1 X170.271 Y143.786 E14.947
G1 X170.622 Y144.037 F7200
G1 F900
G1 X171.349 Y143.351 E15.00131
G1 X171.707 Y143.136 E15.024
G1 X172.129 Y142.96 E15.04884
G1 X172.562 Y142.855 E15.07305
G1 X174.405 Y142.768 E15.1733
G1 X179.212 Y142.768 E15.43448
G1 X181.047 Y142.858 E15.5343
G1 X181.555 Y142.989 E15.5628
G1 X182.033 Y143.213 E15.59148
G1 X182.465 Y143.525 E15.62043
G1 X183.149 Y144.247 E15.67447
G1 X183.524 Y144.976 E15.71901
G1 X183.65 Y145.491 E15.74782
G1 X183.727 Y146.843 E15.8214
G1 X183.735 Y158.452 E16.45215
G1 X183.678 Y159.466 E16.50733
G1 X183.735 Y160.863 E16.5833
G1 X183.735 Y171.415 E17.15662
G1 X183.632 Y173.437 E17.26662
G1 X183.36 Y174.211 E17.31119
G1 X182.978 Y174.768 E17.34789
G1 X182.251 Y175.455 E17.40224
G1 X181.894 Y175.669 E17.42485
G1 X181.13 Y175.936 E17.46882
G1 X179.207 Y176.037 E17.57345
G1 X174.393 Y176.038 E17.83501
G1 X172.435 Y175.929 E17.94156
G1 X172.042 Y175.815 E17.96379
G1 X171.341 Y175.448 E18.00678
G1 X170.626 Y174.772 E18.06024
G1 X170.266 Y174.26 E18.09425
G1 X170.055 Y173.766 E18.12344
G1 X169.939 Y173.239 E18.15276
G1 X169.865 Y171.419 E18.25173
G1 X169.865 Y160.863 E18.82527
G1 X169.922 Y159.466 E18.90124
G1 X169.865 Y158.454 E18.95631
G1 X169.865 Y147.39 E19.55745
G1 X169.968 Y145.368 E19.66745
G1 X170.24 Y144.594 E19.71202
G1 X170.588 Y144.086 E19.74548
G1 X170.939 Y144.336 F7200
G1 F900
G1 X171.595 Y143.71 E19.79475
G1 X172.253 Y143.378 E19.83479
G1 X172.605 Y143.289 E19.85452
G1 X174.408 Y143.203 E19.95259
G1 X179.207 Y143.203 E20.21333
G1 X180.963 Y143.286 E20.30885
G1 X181.393 Y143.394 E20.33294
G1 X181.798 Y143.58 E20.35715
G1 X182.166 Y143.842 E20.38169
G1 X182.79 Y144.494 E20.43072
G1 X183.117 Y145.13 E20.46958
G1 X183.222 Y145.57 E20.49416
G1 X183.291 Y146.851 E20.56386
G1 X183.299 Y158.446 E21.19385
G1 X183.242 Y159.455 E21.24876
G1 X183.299 Y160.868 E21.32559
G1 X183.299 Y171.413 E21.89853
G1 X183.206 Y173.345 E22.00362
G1 X182.968 Y174.019 E22.04246
G1 X182.661 Y174.469 E22.07206
G1 X182.005 Y175.095 E22.12133
G1 X181.374 Y175.418 E22.15984
G1 X181.038 Y175.509 E22.17875
G1 X179.198 Y175.602 E22.27885
G1 X174.398 Y175.602 E22.53965
G1 X172.53 Y175.503 E22.64129
G1 X172.202 Y175.409 E22.65983
G1 X171.588 Y175.089 E22.69745
G1 X170.942 Y174.472 E22.74599
G1 X170.658 Y174.068 E22.77282
G1 X170.464 Y173.613 E22.79969
G1 X170.374 Y173.204 E22.82244
G1 X170.301 Y171.417 E22.91961
G1 X170.301 Y160.868 E23.49277
G1 X170.358 Y159.455 E23.5696
G1 X170.301 Y158.448 E23.6244
G1 X170.301 Y147.392 E24.2251
G1 X170.394 Y145.46 E24.33019
G1 X170.632 Y144.786 E24.36903
G1 X170.905 Y144.385 E24.39539
G1 X171.258 Y144.634 F7200
G1 F900
G1 X171.844 Y144.068 E24.43966
G1 X172.08 Y143.924 E24.45468
G1 X172.649 Y143.723 E24.48747
G1 X174.41 Y143.639 E24.58326
G1 X179.202 Y143.639 E24.84362
G1 X180.882 Y143.714 E24.93499
G1 X181.234 Y143.8 E24.95468
G1 X181.567 Y143.95 E24.97452
G1 X181.868 Y144.16 E24.99446
G1 X182.432 Y144.744 E25.03857
G1 X182.709 Y145.284 E25.07154
G1 X182.792 Y145.646 E25.09172
G1 X182.855 Y146.859 E25.15771
G1 X182.864 Y158.44 E25.78694
G1 X182.806 Y159.445 E25.84164
G1 X182.864 Y160.874 E25.91935
G1 X182.864 Y171.411 E26.49186
G1 X182.779 Y173.257 E26.59226
G1 X182.576 Y173.828 E26.62519
G1 X182.342 Y174.172 E26.64779
G1 X181.756 Y174.737 E26.69202
G1 X181.218 Y175.011 E26.72482
G1 X180.951 Y175.082 E26.73983
G1 X179.19 Y175.166 E26.83562
G1 X174.403 Y175.166 E27.09571
G1 X172.623 Y175.077 E27.19254
G1 X172.363 Y175.004 E27.20721
G1 X171.839 Y174.732 E27.23929
G1 X171.26 Y174.174 E27.28298
G1 X171.048 Y173.873 E27.30298
G1 X170.883 Y173.495 E27.32539
G1 X170.808 Y173.168 E27.34362
G1 X170.736 Y171.415 E27.43895
G1 X170.736 Y160.874 E28.01167
G1 X170.794 Y159.445 E28.08938
G1 X170.736 Y158.441 E28.14402
G1 X170.736 Y147.394 E28.74424
G1 X170.821 Y145.548 E28.84464
G1 X171.024 Y144.977 E28.87757
G1 X171.224 Y144.683 E28.89689
G1 X171.578 Y144.93 F7200
G1 F900
G1 X172.096 Y144.424 E28.93623
G1 X172.734 Y144.151 E28.97393
G1 X174.413 Y144.074 E29.06525
G1 X179.198 Y144.075 E29.32523
G1 X180.804 Y144.143 E29.41257
G1 X181.34 Y144.322 E29.44327
G1 X181.573 Y144.481 E29.4586
G1 X182.077 Y144.996 E29.49775
G1 X182.3 Y145.436 E29.52455
G1 X182.362 Y145.718 E29.54024
G1 X182.42 Y146.868 E29.6028
G1 X182.428 Y158.434 E30.23121
G1 X182.371 Y159.434 E30.28563
G1 X182.428 Y160.88 E30.36426
G1 X182.428 Y171.41 E30.93638
G1 X182.351 Y173.172 E31.03221
G1 X182.185 Y173.636 E31.05899
G1 X182.022 Y173.876 E31.07475
G1 X181.504 Y174.381 E31.11406
G1 X180.866 Y174.654 E31.15176
G1 X179.187 Y174.731 E31.24308
G1 X174.408 Y174.731 E31.50274
G1 X172.712 Y174.65 E31.59499
G1 X172.092 Y174.377 E31.6318
G1 X171.578 Y173.876 E31.6708
G1 X171.437 Y173.675 E31.68414
G1 X171.243 Y173.13 E31.71557
G1 X171.181 Y171.962 E31.77912
G1 X171.172 Y160.88 E32.38124
G1 X171.229 Y159.434 E32.45987
G1 X171.172 Y158.435 E32.51424
G1 X171.172 Y147.395 E33.11407
G1 X171.249 Y145.633 E33.2099
G1 X171.415 Y145.169 E33.23668
G1 X171.544 Y144.979 E33.24916
G1 X171.9 Y145.224 F7200
G1 F900
G1 X172.457 Y144.71 E33.29034
G1 X172.813 Y144.58 E33.31093
G1 X174.416 Y144.51 E33.39811
G1 X179.193 Y144.51 E33.65766
G1 X180.765 Y144.578 E33.74315
G1 X181.279 Y144.803 E33.77364
G1 X181.724 Y145.253 E33.80803
G1 X181.927 Y145.751 E33.83725
G1 X181.984 Y146.876 E33.89845
G1 X181.992 Y158.428 E34.5261
G1 X181.935 Y159.424 E34.5803
G1 X181.992 Y160.885 E34.65974
G1 X181.984 Y171.948 E35.26082
G1 X181.922 Y173.092 E35.32307
G1 X181.793 Y173.445 E35.34349
G1 X181.248 Y174.028 E35.38685
G1 X180.787 Y174.225 E35.41409
G1 X179.184 Y174.295 E35.50127
G1 X174.413 Y174.295 E35.76049
G1 X172.797 Y174.222 E35.84838
G1 X172.35 Y174.025 E35.87492
G1 X171.898 Y173.579 E35.90942
G1 X171.678 Y173.092 E35.93845
G1 X171.608 Y171.412 E36.02981
G1 X171.608 Y160.885 E36.60177
G1 X171.665 Y159.424 E36.68121
G1 X171.608 Y158.429 E36.73536
G1 X171.608 Y147.397 E37.33476
G1 X171.678 Y145.713 E37.42634
G1 X171.875 Y145.279 E37.45224
G1 X172.222 Y145.517 F7200
G1 F900
G1 X172.616 Y145.124 E37.48248
G1 X172.883 Y145.01 E37.49825
G1 X174.419 Y144.946 E37.58178
G1 X179.189 Y144.946 E37.84095
G1 X180.766 Y145.021 E37.92673
G1 X180.986 Y145.126 E37.93997
G1 X181.378 Y145.517 E37.97005
G1 X181.492 Y145.784 E37.98582
G1 X181.549 Y146.885 E38.04572
G1 X181.557 Y158.419 E38.6724
G1 X181.499 Y159.419 E38.72682
G1 X181.557 Y160.891 E38.80686
G1 X181.557 Y171.406 E39.37817
G1 X181.492 Y173.021 E39.46599
G1 X181.378 Y173.288 E39.48176
G1 X180.984 Y173.681 E39.512
G1 X180.717 Y173.795 E39.52777
G1 X179.181 Y173.859 E39.6113
G1 X174.417 Y173.859 E39.87014
G1 X172.874 Y173.793 E39.95405
G1 X172.614 Y173.679 E39.96947
G1 X172.199 Y173.254 E40.00174
G1 X172.108 Y173.021 E40.01533
G1 X172.052 Y171.934 E40.07447
G1 X172.043 Y160.891 E40.67447
G1 X172.101 Y159.419 E40.75451
G1 X172.043 Y158.419 E40.80893
G1 X172.043 Y147.399 E41.40768
G1 X172.108 Y145.784 E41.4955
G1 X172.199 Y145.572 E41.50803
G1 X172.541 Y145.858 F7200
G1 F900
G1 X172.956 Y145.444 E41.53988
G1 X174.422 Y145.381 E41.61961
G1 X179.184 Y145.381 E41.87834
G1 X180.646 Y145.445 E41.95785
G1 X181.059 Y145.858 E41.98958
G1 X181.113 Y146.893 E42.04589
G1 X181.121 Y158.411 E42.6717
G1 X181.063 Y159.412 E42.72618
G1 X181.121 Y160.897 E42.80693
G1 X181.121 Y171.404 E43.37781
G1 X181.059 Y172.947 E43.46171
G1 X180.644 Y173.361 E43.49356
G1 X179.178 Y173.424 E43.57329
G1 X174.422 Y173.424 E43.8317
G1 X172.954 Y173.36 E43.91154
G1 X172.541 Y172.947 E43.94327
G1 X172.479 Y171.408 E44.02696
G1 X172.479 Y160.897 E44.59805
G1 X172.537 Y159.412 E44.6788
G1 X172.479 Y158.411 E44.73328
G1 X172.479 Y147.401 E45.33148
G1 X172.539 Y145.918 E45.41212
G1 X172.973 Y145.999 F7200
G1 F900
G1 X173.096 Y145.876 E45.42157
G1 X173.944 Y145.83 E45.46771
G1 X179.179 Y145.817 E45.75214
G1 X180.502 Y145.874 E45.82409
G1 X180.627 Y145.999 E45.83369
G1 X180.677 Y146.902 E45.88283
G1 X180.686 Y158.403 E46.50771
G1 X180.628 Y159.406 E46.5623
G1 X180.686 Y160.903 E46.6437
G1 X180.686 Y171.403 E47.21419
G1 X180.627 Y172.806 E47.29049
G1 X180.504 Y172.929 E47.29994
G1 X179.175 Y172.988 E47.37222
G1 X174.427 Y172.988 E47.63019
G1 X173.098 Y172.931 E47.70246
G1 X172.973 Y172.806 E47.71206
G1 X172.914 Y171.406 E47.78819
G1 X172.914 Y160.903 E48.35885
G1 X172.972 Y159.406 E48.44025
G1 X172.914 Y158.403 E48.49484
G1 X172.914 Y147.403 E49.0925
G1 X172.971 Y146.059 E49.16559
G1 E39.16559 F2400
G92 E0
G1 X172.971 Y146.059 F7200
G1 X184.375 Y175.147
G1 E10 F1800
;TYPE:Support material
G1 F900
G1 X184.158 Y175.929 E10.04409
G1 X183.856 Y176.692 E10.08868
G1 X183.472 Y177.423 E10.13354
G1 X183.161 Y177.887 E10.16389
G1 X182.818 Y178.603 E10.20703
G1 X180.287 Y180.529 E10.37983
G1 X179.606 Y180.657 E10.41748
G1 X178.376 Y181.129 E10.48906
G1 X177.834 Y181.089 E10.51859
G1 X176.57 Y181.145 E10.58733
G1 X174.458 Y180.925 E10.7027
G1 X173.791 Y180.486 E10.74609
G1 X172.7 Y179.895 E10.81351
G1 X171.914 Y179.306 E10.86688
G1 X171.319 Y178.738 E10.91157
G1 X170.889 Y178.231 E10.94769
G1 X170.329 Y177.425 E11.00101
G1 X169.945 Y176.695 E11.04583
G1 X169.642 Y175.931 E11.09049
G1 X169.399 Y174.988 E11.1434
G1 X169.676 Y175.561 E11.17798
G1 X171.156 Y176.739 E11.28076
G1 X172.972 Y177.153 E11.38196
G1 X180.614 Y177.153 E11.79717
G1 X181.568 Y177.044 E11.84934
G1 X183.258 Y176.227 E11.95133
G1 X184.453 Y174.673 E12.05784
G1 X184.386 Y175.082 E12.08036
G1 X183.073 Y177.667 F7200
G1 F900
G1 X183.073 Y176.752 E12.13007
G1 X182.589 Y176.986 E12.15928
G1 X182.589 Y178.174 E12.22383
G1 X182.505 Y178.349 E12.23438
G1 X182.105 Y178.653 E12.26168
G1 X182.105 Y177.22 E12.33954
G1 X181.621 Y177.433 E12.36827
G1 X181.621 Y179.021 E12.45455
G1 X181.137 Y179.39 E12.48762
G1 X181.137 Y177.488 E12.59096
G1 X180.653 Y177.543 E12.61743
G1 X180.653 Y179.758 E12.73778
G1 X180.169 Y180.126 E12.77082
G1 X180.169 Y177.545 E12.91105
G1 X179.685 Y177.545 E12.93735
G1 X179.685 Y180.243 E13.08394
G1 X179.201 Y180.393 E13.11147
G1 X179.201 Y177.545 E13.26621
G1 X178.717 Y177.545 E13.29251
G1 X178.717 Y180.578 E13.4573
G1 X178.318 Y180.731 E13.48052
G1 X178.233 Y180.725 E13.48515
G1 X178.233 Y177.545 E13.65793
G1 X177.749 Y177.545 E13.68423
G1 X177.749 Y180.704 E13.85587
G1 X177.265 Y180.751 E13.88229
G1 X177.265 Y177.545 E14.05648
G1 X176.781 Y177.545 E14.08278
G1 X176.781 Y180.753 E14.25708
G1 X176.443 Y180.746 E14.27545
G1 X176.297 Y180.73 E14.28343
G1 X176.297 Y177.545 E14.45648
G1 X175.813 Y177.545 E14.48278
G1 X175.813 Y180.678 E14.653
G1 X175.329 Y180.625 E14.67945
G1 X175.329 Y177.545 E14.8468
G1 X174.845 Y177.545 E14.8731
G1 X174.845 Y180.573 E15.03762
G1 X174.595 Y180.545 E15.05129
G1 X174.361 Y180.391 E15.06651
G1 X174.361 Y177.545 E15.22114
G1 X173.877 Y177.545 E15.24744
G1 X173.877 Y180.093 E15.38588
G1 X173.393 Y179.854 E15.41521
G1 X173.393 Y177.545 E15.54066
G1 X172.909 Y177.54 E15.56696
G1 X172.909 Y179.563 E15.67688
G1 X172.425 Y179.208 E15.70949
G1 X172.425 Y177.43 E15.80609
G1 X171.941 Y177.32 E15.83306
G1 X171.941 Y178.792 E15.91304
G1 X171.457 Y178.294 E15.95077
G1 X171.457 Y177.209 E16.00972
G1 X170.973 Y177.094 E16.03675
G1 X170.973 Y177.681 E16.06864
G1 X170.489 Y176.889 E16.11907
G1 X170.489 Y176.458 E16.14249
G1 E6.14249 F2400
G92 E0
G1 X170.489 Y176.458 F7200
G1 X176.55 Y135.705
G1 E10 F1800
G1 F900
G1 X177.234 Y135.801 E10.03753
G1 X178.036 Y135.988 E10.08227
G1 X178.822 Y136.25 E10.12729
G1 X179.578 Y136.582 E10.17215
G1 X180.301 Y136.984 E10.2171
G1 X180.983 Y137.45 E10.26198
G1 X181.621 Y137.978 E10.30698
G1 X182.214 Y138.569 E10.35247
G1 X182.745 Y139.208 E10.39761
G1 X183.212 Y139.889 E10.44247
G1 X183.608 Y140.6 E10.48669
G1 X183.943 Y141.357 E10.53167
G1 X184.187 Y142.081 E10.57318
G1 X184.397 Y142.943 E10.62138
G1 X184.512 Y143.76 E10.66621
G1 X184.55 Y144.538 E10.70853
G1 X183.924 Y143.244 E10.78663
G1 X182.444 Y142.066 E10.88941
G1 X180.628 Y141.653 E10.9906
G1 X172.986 Y141.653 E11.40581
G1 X172.032 Y141.761 E11.45797
G1 X170.342 Y142.578 E11.55996
G1 X169.164 Y144.058 E11.66274
G1 X168.75 Y145.874 E11.76394
G1 X168.75 Y148.674 E11.91607
G1 X168.184 Y147.997 E11.96402
G1 X167.532 Y147.537 E12.00737
G1 X166.788 Y147.251 E12.05068
G1 X165.966 Y147.153 E12.09566
G1 X143.842 Y147.158 E13.29772
G1 X143.212 Y147.251 E13.33232
G1 X142.757 Y147.401 E13.35835
G1 X142.195 Y147.701 E13.39296
G1 X141.818 Y147.995 E13.41894
G1 X141.389 Y148.468 E13.45364
G1 X141.062 Y149.015 E13.48827
G1 X140.848 Y149.614 E13.52283
G1 X140.755 Y150.241 E13.55727
G1 X140.75 Y173.578 E14.82524
G1 X140.71 Y174.313 E14.86523
G1 X140.575 Y175.147 E14.91113
G1 X140.358 Y175.928 E14.95517
G1 X140.048 Y176.714 E15.00108
G1 X139.66 Y177.445 E15.04605
G1 X139.211 Y178.108 E15.08956
G1 X137.929 Y179.689 E15.20015
G1 X136.841 Y180.193 E15.2653
G1 X136.109 Y180.667 E15.31268
G1 X135.611 Y180.732 E15.33997
G1 X134.592 Y181.123 E15.39927
G1 X134.042 Y181.088 E15.42921
G1 X132.77 Y181.145 E15.49839
G1 X130.68 Y180.927 E15.61256
G1 X130.003 Y180.492 E15.65628
G1 X129.472 Y180.239 E15.68824
G1 X128.766 Y179.809 E15.73315
G1 X128.113 Y179.306 E15.77793
G1 X127.519 Y178.737 E15.82262
G1 X126.988 Y178.107 E15.86739
G1 X126.616 Y177.559 E15.90338
G1 X126.145 Y176.695 E15.95685
G1 X125.842 Y175.93 E16.00156
G1 X125.68 Y175.346 E16.03449
G1 X125.491 Y174.327 E16.0908
G1 X125.45 Y173.575 E16.13172
G1 X125.45 Y144.538 E17.70938
G1 X125.485 Y143.785 E17.75034
G1 X125.598 Y142.97 E17.79504
G1 X125.786 Y142.166 E17.8399
G1 X126.047 Y141.383 E17.88474
G1 X126.381 Y140.623 E17.92984
G1 X126.782 Y139.901 E17.97471
G1 X127.247 Y139.219 E18.01956
G1 X127.775 Y138.582 E18.06451
G1 X128.366 Y137.988 E18.11004
G1 X128.996 Y137.465 E18.15453
G1 X129.671 Y137.001 E18.19903
G1 X130.399 Y136.594 E18.24435
G1 X131.153 Y136.26 E18.28916
G1 X132.564 Y135.736 E18.37094
G1 X134.326 Y135.653 E18.46678
G1 X175.005 Y135.653 E20.67699
G1 X175.378 Y135.542 E20.69813
G1 X176.485 Y135.696 E20.75886
