; G-Code generated by Simplify3D(R) Version 4.1.2
; Oct 31, 2022 at 7:59:56 PM
; Settings Summary
;   processName,Process3
;   applyToModels,z8p_psfan_case
;   profileName,Z9M4 (modified)
;   profileVersion,2022-10-28 12:59:03
;   baseProfile,Default
;   printMaterial,PLA
;   printQuality,Medium
;   printExtruders,All Extruders
;   extruderName,Extruder 1,Extruder 2,Extruder 3,Extruder 4
;   extruderToolheadNumber,0,1,2,3
;   extruderDiameter,0.4,0.4,0.4,0.4
;   extruderAutoWidth,0,0,0,0
;   extruderWidth,0.48,0.4,0.4,0.4
;   extrusionMultiplier,1,1.2,1,1
;   extruderUseRetract,1,1,1,1
;   extruderRetractionDistance,12,12,12,12
;   extruderExtraRestartDistance,0.15,0.15,0.15,0.15
;   extruderRetractionZLift,0,0,0,0
;   extruderRetractionSpeed,2100,2100,2100,2100
;   extruderUseCoasting,0,0,0,0
;   extruderCoastingDistance,0.2,0.2,0.2,0.2
;   extruderUseWipe,1,1,1,1
;   extruderWipeDistance,3,3,3,3
;   primaryExtruder,0
;   layerHeight,0.2
;   topSolidLayers,3
;   bottomSolidLayers,3
;   perimeterOutlines,2
;   printPerimetersInsideOut,1
;   startPointOption,2
;   startPointOriginX,150
;   startPointOriginY,150
;   sequentialIslands,0
;   spiralVaseMode,0
;   firstLayerHeightPercentage,150
;   firstLayerWidthPercentage,100
;   firstLayerUnderspeed,0.5
;   useRaft,0
;   raftExtruder,1
;   raftTopLayers,2
;   raftBaseLayers,2
;   raftOffset,3
;   raftSeparationDistance,0.14
;   raftTopInfill,100
;   aboveRaftSpeedMultiplier,0.3
;   useSkirt,1
;   skirtExtruder,0
;   skirtLayers,1
;   skirtOutlines,3
;   skirtOffset,4
;   usePrimePillar,0
;   primePillarExtruder,999
;   primePillarWidth,12
;   primePillarLocation,7
;   primePillarSpeedMultiplier,1
;   useOozeShield,0
;   oozeShieldExtruder,999
;   oozeShieldOffset,2
;   oozeShieldOutlines,1
;   oozeShieldSidewallShape,1
;   oozeShieldSidewallAngle,30
;   oozeShieldSpeedMultiplier,1
;   infillExtruder,0
;   internalInfillPattern,Rectilinear
;   externalInfillPattern,Rectilinear
;   infillPercentage,20
;   outlineOverlapPercentage,15
;   infillExtrusionWidthPercentage,100
;   minInfillLength,5
;   infillLayerInterval,1
;   internalInfillAngles,45,-45
;   overlapInternalInfillAngles,0
;   externalInfillAngles,45,-45
;   generateSupport,0
;   supportExtruder,0
;   supportInfillPercentage,30
;   supportExtraInflation,0
;   supportBaseLayers,0
;   denseSupportExtruder,0
;   denseSupportLayers,0
;   denseSupportInfillPercentage,70
;   supportLayerInterval,1
;   supportHorizontalPartOffset,0.3
;   supportUpperSeparationLayers,1
;   supportLowerSeparationLayers,1
;   supportType,0
;   supportGridSpacing,4
;   maxOverhangAngle,45
;   supportAngles,0
;   temperatureName,Nozzle,Bed
;   temperatureNumber,0,0
;   temperatureSetpointCount,1,1
;   temperatureSetpointLayers,1,1
;   temperatureSetpointTemperatures,200,60
;   temperatureStabilizeAtStartup,1,1
;   temperatureHeatedBed,0,1
;   fanLayers,1,2
;   fanSpeeds,0,100
;   blipFanToFullPower,0
;   adjustSpeedForCooling,1
;   minSpeedLayerTime,15
;   minCoolingSpeedSlowdown,20
;   increaseFanForCooling,0
;   minFanLayerTime,45
;   maxCoolingFanSpeed,100
;   increaseFanForBridging,1
;   bridgingFanSpeed,100
;   use5D,1
;   relativeEdistances,0
;   allowEaxisZeroing,1
;   independentExtruderAxes,0
;   includeM10123,0
;   stickySupport,1
;   applyToolheadOffsets,0
;   gcodeXoffset,0
;   gcodeYoffset,0
;   gcodeZoffset,0
;   overrideMachineDefinition,1
;   machineTypeOverride,0
;   strokeXoverride,300
;   strokeYoverride,300
;   strokeZoverride,385
;   originOffsetXoverride,0
;   originOffsetYoverride,0
;   originOffsetZoverride,0
;   homeXdirOverride,-1
;   homeYdirOverride,-1
;   homeZdirOverride,-1
;   flipXoverride,1
;   flipYoverride,-1
;   flipZoverride,1
;   toolheadOffsets,0,0|0,0|0,0|0,0|0,0|0,0
;   overrideFirmwareConfiguration,0
;   firmwareTypeOverride,RepRap (Marlin/Repetier/Sprinter)
;   GPXconfigOverride,r2
;   baudRateOverride,115200
;   overridePrinterModels,0
;   printerModelsOverride
;   startingGcode,G28 ; home all axes,;M209 S1	;enable FW retraction,G1 Z5 F3000 ; lift,G1 X5 Y10 F1500 ; move to prime,G1 Z0.2 F3000 ; get ready to prime,G92 E0 ; reset extrusion distance,G1 Y200 E15 F600 ; prime nozzle,G1 Y100 F5000 ; quick wipe,G92 E0 ; reset extrusion distance
;   layerChangeGcode,
;   retractionGcode,
;   toolChangeGcode,
;   endingGcode,G28 XY,M106 S0 ; turn off FAN,M104 S0 ; turn off extruder,M140 S0 ; turn off bed,M84 ; disable motors
;   exportFileFormat,gcode
;   celebration,0
;   celebrationSong,Random Song
;   postProcessing,
;   defaultSpeed,3000
;   outlineUnderspeed,0.5
;   solidInfillUnderspeed,0.8
;   supportUnderspeed,0.8
;   rapidXYspeed,6000
;   rapidZspeed,480
;   minBridgingArea,50
;   bridgingExtraInflation,0
;   bridgingExtrusionMultiplier,1
;   bridgingSpeedMultiplier,1
;   useFixedBridgingAngle,0
;   fixedBridgingAngle,0
;   applyBridgingToPerimeters,0
;   filamentDiameters,1.75|1.75|1.75|1.75|1.75|1.75
;   filamentPricesPerKg,46|46|46|46|46|46
;   filamentDensities,1.25|1.25|1.25|1.25|1.25|1.25
;   useMinPrintHeight,0
;   minPrintHeight,25
;   useMaxPrintHeight,0
;   maxPrintHeight,50
;   useDiaphragm,0
;   diaphragmLayerInterval,20
;   robustSlicing,1
;   mergeAllIntoSolid,0
;   onlyRetractWhenCrossingOutline,1
;   retractBetweenLayers,0
;   useRetractionMinTravel,1
;   retractionMinTravel,0.5
;   retractWhileWiping,0
;   onlyWipeOutlines,1
;   avoidCrossingOutline,1
;   maxMovementDetourFactor,8
;   toolChangeRetractionDistance,0
;   toolChangeExtraRestartDistance,-0.5
;   toolChangeRetractionSpeed,600
;   externalThinWallType,0
;   internalThinWallType,2
;   thinWallAllowedOverlapPercentage,10
;   singleExtrusionMinLength,1
;   singleExtrusionMinPrintingWidthPercentage,50
;   singleExtrusionMaxPrintingWidthPercentage,200
;   singleExtrusionEndpointExtension,0.2
;   horizontalSizeCompensation,0
G90
M82
M106 S0
M140 S60
M190 S60
M104 S200 T0
M109 S200 T0
G28 ; home all axes
;M209 S1	;enable FW retraction
G1 Z5 F3000 ; lift
G1 X5 Y10 F1500 ; move to prime
G1 Z0.2 F3000 ; get ready to prime
G92 E0 ; reset extrusion distance
G1 Y200 E15 F600 ; prime nozzle
G1 Y100 F5000 ; quick wipe
G92 E0 ; reset extrusion distance
; process Process3
; layer 1, Z = 0.300
T0
G92 E0.0000
G1 E-12.0000 F2100
; feature skirt
; tool H0.300 W0.480
G1 Z0.300 F480
G1 X116.340 Y115.513 F6000
G1 E0.1500 F2100
G92 E0.0000
G1 X117.106 Y114.863 E0.0601 F1500
G1 X117.301 Y114.714 E0.0748
G1 X118.122 Y114.142 E0.1347
G1 X118.331 Y114.010 E0.1495
G1 X119.205 Y113.517 E0.2096
G1 X119.424 Y113.407 E0.2243
G1 X120.338 Y112.999 E0.2842
G1 X120.568 Y112.909 E0.2990
G1 X121.520 Y112.589 E0.3591
G1 X121.755 Y112.522 E0.3737
G1 X122.730 Y112.294 E0.4337
G1 X122.973 Y112.249 E0.4485
G1 X123.968 Y112.114 E0.5086
G1 X124.211 Y112.092 E0.5232
G1 X125.212 Y112.051 E0.5831
G1 X125.459 Y112.052 E0.5979
G1 X126.456 Y112.106 E0.6577
G1 X126.699 Y112.131 E0.6723
G1 X127.633 Y112.270 E0.7289
G1 X127.756 Y112.291 E0.7364
G1 X150.577 Y116.813 E2.1292
G1 X151.636 Y116.840 E2.1926
G1 X151.769 Y116.847 E2.2006
G1 X153.328 Y116.967 E2.2942
G1 X153.460 Y116.981 E2.3022
G1 X155.010 Y117.180 E2.3957
G1 X155.142 Y117.201 E2.4037
G1 X155.399 Y117.247 E2.4193
G1 X159.846 Y112.800 E2.7958
G1 X164.154 Y112.800 E3.0538
G1 X168.614 Y117.260 E3.4314
G1 X168.614 Y121.568 E3.6893
G1 X166.632 Y123.551 E3.8572
G1 X169.528 Y126.447 E4.1024
G1 X173.771 Y130.690 E4.4616
G1 X176.449 Y133.368 E4.6884
G1 X178.432 Y131.386 E4.8562
G1 X182.740 Y131.386 E5.1142
G1 X187.200 Y135.846 E5.4918
G1 X187.200 Y140.154 E5.7497
G1 X182.752 Y144.602 E6.1263
G1 X182.806 Y144.907 E6.1449
G1 X182.826 Y145.037 E6.1527
G1 X183.019 Y146.537 E6.2433
G1 X183.032 Y146.668 E6.2512
G1 X183.152 Y148.228 E6.3448
G1 X183.159 Y148.360 E6.3528
G1 X183.200 Y149.923 E6.4463
G1 X183.200 Y150.058 E6.4544
G1 X183.158 Y151.673 E6.5511
G1 X183.151 Y151.808 E6.5592
G1 X183.029 Y153.368 E6.6529
G1 X183.015 Y153.500 E6.6609
G1 X182.814 Y155.049 E6.7544
G1 X182.793 Y155.180 E6.7623
G1 X182.609 Y156.194 E6.8240
G1 X182.609 Y166.630 E7.4488
G1 X182.603 Y166.803 E7.4592
G1 X182.582 Y167.111 E7.4776
G1 X182.962 Y167.167 E7.5006
G1 X183.634 Y167.360 E7.5425
G1 X184.515 Y167.749 E7.6001
G1 X185.107 Y168.110 E7.6416
G1 X185.853 Y168.716 E7.6992
G1 X186.332 Y169.224 E7.7410
G1 X186.896 Y170.012 E7.7990
G1 X187.222 Y170.628 E7.8407
G1 X187.516 Y171.423 E7.8915
G1 X187.639 Y171.879 E7.9198
G1 X187.830 Y172.981 E7.9867
G1 X187.861 Y173.224 E8.0013
G1 X187.939 Y174.219 E8.0611
G1 X187.946 Y174.466 E8.0759
G1 X187.929 Y175.467 E8.1359
G1 X187.914 Y175.711 E8.1505
G1 X187.803 Y176.708 E8.2106
G1 X187.764 Y176.953 E8.2254
G1 X187.559 Y177.933 E8.2853
G1 X187.498 Y178.170 E8.3000
G1 X187.201 Y179.129 E8.3601
G1 X187.117 Y179.361 E8.3749
G1 X186.732 Y180.285 E8.4348
G1 X186.627 Y180.507 E8.4495
G1 X186.155 Y181.393 E8.5096
G1 X186.029 Y181.605 E8.5243
G1 X185.477 Y182.439 E8.5842
G1 X185.332 Y182.638 E8.5989
G1 X184.702 Y183.419 E8.6591
G1 X184.539 Y183.604 E8.6738
G1 X183.840 Y184.320 E8.7337
G1 X183.660 Y184.487 E8.7484
G1 X182.894 Y185.137 E8.8086
G1 X182.699 Y185.286 E8.8233
G1 X181.878 Y185.858 E8.8832
G1 X181.669 Y185.990 E8.8979
G1 X180.795 Y186.483 E8.9581
G1 X180.576 Y186.593 E8.9727
G1 X179.662 Y187.001 E9.0326
G1 X179.432 Y187.091 E9.0474
G1 X178.480 Y187.411 E9.1075
G1 X178.245 Y187.478 E9.1222
G1 X177.270 Y187.706 E9.1821
G1 X177.027 Y187.751 E9.1969
G1 X176.032 Y187.886 E9.2570
G1 X175.789 Y187.908 E9.2716
G1 X174.788 Y187.949 E9.3316
G1 X174.541 Y187.948 E9.3464
G1 X173.544 Y187.894 E9.4062
G1 X173.301 Y187.869 E9.4208
G1 X172.367 Y187.730 E9.4773
G1 X172.244 Y187.709 E9.4848
G1 X149.424 Y183.187 E10.8776
G1 X148.377 Y183.160 E10.9403
G1 X148.246 Y183.153 E10.9481
G1 X146.699 Y183.036 E11.0410
G1 X146.568 Y183.022 E11.0489
G1 X145.030 Y182.826 E11.1417
G1 X144.899 Y182.806 E11.1496
G1 X143.369 Y182.531 E11.2427
G1 X143.241 Y182.505 E11.2506
G1 X141.728 Y182.153 E11.3435
G1 X141.600 Y182.120 E11.3515
G1 X140.107 Y181.692 E11.4444
G1 X139.982 Y181.652 E11.4523
G1 X138.511 Y181.149 E11.5453
G1 X138.387 Y181.103 E11.5533
G1 X136.947 Y180.526 E11.6461
G1 X136.826 Y180.474 E11.6540
G1 X135.414 Y179.824 E11.7471
G1 X135.296 Y179.766 E11.7550
G1 X133.969 Y179.072 E11.8446
G1 X133.858 Y179.010 E11.8523
G1 X132.473 Y178.196 E11.9484
G1 X132.357 Y178.124 E11.9566
G1 X131.059 Y177.266 E12.0497
G1 X130.950 Y177.191 E12.0577
G1 X129.701 Y176.271 E12.1505
G1 X129.596 Y176.190 E12.1585
G1 X128.393 Y175.206 E12.2515
G1 X128.293 Y175.121 E12.2594
G1 X127.142 Y174.078 E12.3523
G1 X127.046 Y173.987 E12.3603
G1 X125.950 Y172.887 E12.4532
G1 X125.859 Y172.792 E12.4611
G1 X124.819 Y171.637 E12.5542
G1 X124.733 Y171.537 E12.5621
G1 X123.755 Y170.333 E12.6550
G1 X123.674 Y170.228 E12.6629
G1 X122.756 Y168.974 E12.7559
G1 X122.681 Y168.866 E12.7638
G1 X121.829 Y167.568 E12.8568
G1 X121.759 Y167.455 E12.8647
G1 X120.974 Y166.115 E12.9577
G1 X120.910 Y166.000 E12.9655
G1 X120.193 Y164.621 E13.0586
G1 X120.135 Y164.503 E13.0665
G1 X119.513 Y163.142 E13.1561
G1 X119.463 Y163.025 E13.1637
G1 X118.867 Y161.532 E13.2599
G1 X118.820 Y161.404 E13.2681
G1 X118.320 Y159.931 E13.3612
G1 X118.281 Y159.805 E13.3691
G1 X117.857 Y158.311 E13.4621
G1 X117.824 Y158.183 E13.4700
G1 X117.477 Y156.668 E13.5630
G1 X117.450 Y156.539 E13.5710
G1 X117.180 Y155.011 E13.6639
G1 X117.161 Y154.880 E13.6718
G1 X116.968 Y153.337 E13.7648
G1 X116.955 Y153.206 E13.7727
G1 X116.841 Y151.658 E13.8657
G1 X116.835 Y151.525 E13.8736
G1 X116.800 Y149.973 E13.9666
G1 X116.800 Y149.841 E13.9745
G1 X116.844 Y148.287 E14.0675
G1 X116.851 Y148.155 E14.0754
G1 X116.969 Y146.665 E14.1649
G1 X116.982 Y146.538 E14.1726
G1 X117.187 Y144.947 E14.2686
G1 X117.208 Y144.812 E14.2768
G1 X117.391 Y143.805 E14.3381
G1 X117.391 Y133.370 E14.9628
G1 X117.397 Y133.197 E14.9732
G1 X117.418 Y132.889 E14.9916
G1 X117.038 Y132.833 E15.0146
G1 X116.366 Y132.639 E15.0565
G1 X115.485 Y132.251 E15.1141
G1 X114.893 Y131.890 E15.1556
G1 X114.150 Y131.287 E15.2129
G1 X113.677 Y130.786 E15.2542
G1 X113.115 Y130.007 E15.3117
G1 X112.786 Y129.390 E15.3536
G1 X112.487 Y128.585 E15.4050
G1 X112.362 Y128.123 E15.4336
G1 X112.170 Y127.019 E15.5007
G1 X112.139 Y126.777 E15.5153
G1 X112.061 Y125.781 E15.5751
G1 X112.054 Y125.534 E15.5899
G1 X112.071 Y124.533 E15.6499
G1 X112.086 Y124.289 E15.6645
G1 X112.197 Y123.291 E15.7246
G1 X112.236 Y123.047 E15.7394
G1 X112.441 Y122.067 E15.7993
G1 X112.502 Y121.830 E15.8140
G1 X112.799 Y120.871 E15.8741
G1 X112.883 Y120.639 E15.8889
G1 X113.268 Y119.715 E15.9488
G1 X113.373 Y119.493 E15.9635
G1 X113.845 Y118.607 E16.0236
G1 X113.971 Y118.395 E16.0383
G1 X114.523 Y117.561 E16.0983
G1 X114.668 Y117.362 E16.1130
G1 X115.298 Y116.581 E16.1731
G1 X115.461 Y116.396 E16.1878
G1 X116.160 Y115.680 E16.2477
G1 X116.340 Y115.513 E16.2624
G1 X116.659 Y115.871 F6000
G92 E0.0000
G1 X117.408 Y115.237 E0.0588 F1500
G1 X117.585 Y115.101 E0.0721
G1 X118.387 Y114.542 E0.1307
G1 X118.577 Y114.423 E0.1441
G1 X119.431 Y113.941 E0.2028
G1 X119.630 Y113.841 E0.2161
G1 X120.523 Y113.442 E0.2747
G1 X120.732 Y113.361 E0.2881
G1 X121.662 Y113.048 E0.3469
G1 X121.876 Y112.987 E0.3602
G1 X122.828 Y112.764 E0.4187
G1 X123.049 Y112.723 E0.4322
G1 X124.021 Y112.591 E0.4909
G1 X124.242 Y112.571 E0.5042
G1 X125.220 Y112.531 E0.5628
G1 X125.444 Y112.532 E0.5762
G1 X126.419 Y112.585 E0.6346
G1 X126.639 Y112.607 E0.6479
G1 X127.557 Y112.744 E0.7034
G1 X127.668 Y112.763 E0.7102
G1 X150.523 Y117.292 E2.1051
G1 X151.618 Y117.320 E2.1706
G1 X151.738 Y117.326 E2.1778
G1 X153.285 Y117.445 E2.2707
G1 X153.405 Y117.458 E2.2780
G1 X154.943 Y117.655 E2.3708
G1 X155.062 Y117.674 E2.3780
G1 X155.561 Y117.764 E2.4083
G1 X160.045 Y113.280 E2.7880
G1 X163.955 Y113.280 E3.0221
G1 X168.134 Y117.459 E3.3759
G1 X168.134 Y121.369 E3.6100
G1 X165.953 Y123.551 E3.7947
G1 X169.048 Y126.646 E4.0568
G1 X169.048 Y126.709 E4.0606
G1 X169.111 Y126.709 E4.0644
G1 X173.291 Y130.889 E4.4182
G1 X173.291 Y130.952 E4.4220
G1 X173.354 Y130.952 E4.4258
G1 X176.449 Y134.047 E4.6879
G1 X178.631 Y131.866 E4.8726
G1 X182.541 Y131.866 E5.1067
G1 X186.720 Y136.045 E5.4605
G1 X186.720 Y139.955 E5.6946
G1 X182.235 Y144.440 E6.0744
G1 X182.333 Y144.986 E6.1076
G1 X182.351 Y145.104 E6.1147
G1 X182.542 Y146.592 E6.2045
G1 X182.554 Y146.711 E6.2117
G1 X182.673 Y148.258 E6.3046
G1 X182.680 Y148.379 E6.3118
G1 X182.720 Y149.929 E6.4047
G1 X182.720 Y150.051 E6.4120
G1 X182.678 Y151.654 E6.5080
G1 X182.672 Y151.777 E6.5153
G1 X182.551 Y153.324 E6.6082
G1 X182.538 Y153.444 E6.6155
G1 X182.338 Y154.981 E6.7083
G1 X182.320 Y155.100 E6.7155
G1 X182.129 Y156.151 E6.7794
G1 X182.129 Y166.622 E7.4063
G1 X182.123 Y166.779 E7.4157
G1 X182.074 Y167.521 E7.4602
G1 X182.860 Y167.637 E7.5078
G1 X183.470 Y167.813 E7.5458
G1 X184.292 Y168.175 E7.5996
G1 X184.829 Y168.503 E7.6373
G1 X185.526 Y169.068 E7.6910
G1 X185.961 Y169.530 E7.7289
G1 X186.487 Y170.265 E7.7831
G1 X186.783 Y170.824 E7.8209
G1 X187.058 Y171.569 E7.8685
G1 X187.169 Y171.983 E7.8941
G1 X187.355 Y173.052 E7.9591
G1 X187.383 Y173.272 E7.9724
G1 X187.459 Y174.245 E8.0308
G1 X187.466 Y174.470 E8.0443
G1 X187.450 Y175.448 E8.1028
G1 X187.436 Y175.669 E8.1161
G1 X187.327 Y176.644 E8.1748
G1 X187.292 Y176.866 E8.1883
G1 X187.092 Y177.824 E8.2469
G1 X187.036 Y178.039 E8.2602
G1 X186.746 Y178.976 E8.3189
G1 X186.670 Y179.187 E8.3323
G1 X186.293 Y180.090 E8.3909
G1 X186.198 Y180.291 E8.4042
G1 X185.737 Y181.157 E8.4630
G1 X185.622 Y181.350 E8.4764
G1 X185.083 Y182.165 E8.5349
G1 X184.952 Y182.345 E8.5483
G1 X184.336 Y183.109 E8.6070
G1 X184.187 Y183.276 E8.6204
G1 X183.504 Y183.976 E8.6789
G1 X183.341 Y184.129 E8.6923
G1 X182.592 Y184.763 E8.7511
G1 X182.416 Y184.899 E8.7644
G1 X181.613 Y185.458 E8.8230
G1 X181.424 Y185.577 E8.8364
G1 X180.569 Y186.059 E8.8951
G1 X180.370 Y186.160 E8.9084
G1 X179.477 Y186.558 E8.9670
G1 X179.268 Y186.639 E8.9804
G1 X178.338 Y186.952 E9.0392
G1 X178.124 Y187.013 E9.0525
G1 X177.171 Y187.236 E9.1110
G1 X176.951 Y187.277 E9.1245
G1 X175.979 Y187.409 E9.1832
G1 X175.758 Y187.429 E9.1965
G1 X174.780 Y187.469 E9.2551
G1 X174.556 Y187.468 E9.2685
G1 X173.581 Y187.415 E9.3269
